icons/shield-x-24.svg

<svg xmlns="http://www.w3.org/2000/svg" width="24" height="24" viewBox="0 0 24 24"><path d="M9.28 7.72a.75.75 0 00-1.06 1.06l2.72 2.72-2.72 2.72a.75.75 0 101.06 1.06L12 12.56l2.72 2.72a.75.75 0 101.06-1.06l-2.72-2.72 2.72-2.72a.75.75 0 00-1.06-1.06L12 10.44 9.28 7.72z"/><path d="M12.54.637l8.25 2.675A1.75 1.75 0 0122 4.976V10c0 6.19-3.771 10.704-9.401 12.83a1.704 1.704 0 01-1.198 0C5.77 20.705 2 16.19 2 10V4.976c0-.758.489-1.43 1.21-1.664L11.46.637a1.748 1.748 0 011.08 0zm-.617 1.426l-8.25 2.676a.249.249 0 00-.173.237V10c0 5.46 3.28 9.483 8.43 11.426a.199.199 0 00.14 0C17.22 19.483 20.5 15.461 20.5 10V4.976a.25.25 0 00-.173-.237l-8.25-2.676a.253.253 0 00-.154 0z"/></svg>

<svg xmlns="http://www.w3.org/2000/svg" width="24" height="24" viewBox="0 0 24 24">
  <defs/>
  <path d="M9.28,7.72 A0.75 0.75 0 0 0 8.22,8.78 L10.94,11.5 L8.22,14.22 A0.75 0.75 0 1 0 9.28,15.28 L12,12.56 L14.72,15.28 A0.75 0.75 0 1 0 15.78,14.22 L13.06,11.5 L15.78,8.78 A0.75 0.75 0 0 0 14.72,7.72 L12,10.44 L9.28,7.72 Z"/>
  <path d="M12.54,0.637 L20.79,3.312 C21.51,3.546 22,4.217 22,4.976 L22,10 C22,16.19 18.229,20.704 12.599,22.83 C12.213,22.975 11.787,22.975 11.401,22.83 C5.77,20.705 2,16.19 2,10 L2,4.976 C2,4.218 2.489,3.546 3.21,3.312 L11.46,0.637 C11.811,0.523 12.189,0.523 12.54,0.637 Z M11.923,2.063 L3.673,4.739 C3.569,4.773 3.5,4.868 3.5,4.976 L3.5,10 C3.5,15.46 6.78,19.483 11.93,21.426 C11.975,21.443 12.025,21.443 12.07,21.426 C17.22,19.483 20.5,15.461 20.5,10 L20.5,4.976 C20.5,4.868 20.43,4.772 20.327,4.739 L12.077,2.063 C12.027,2.047 11.973,2.047 11.923,2.063 Z"/>
</svg>
